material/.icons/material/bell-circle-outline.svg

<svg xmlns="http://www.w3.org/2000/svg" viewBox="0 0 24 24"><path d="M17 16H7v-1l1-1v-2.61c0-1.09.27-2.05.79-2.86C9.3 7.72 10.04 7.21 11 7v-.5a1 1 0 011-1 1 1 0 011 1V7c.96.21 1.7.72 2.21 1.53.52.81.79 1.77.79 2.86V14l1 1v1m-3.5 1a1.5 1.5 0 01-1.5 1.5 1.5 1.5 0 01-1.5-1.5h3M12 2a10 10 0 0110 10 10 10 0 01-10 10A10 10 0 012 12 10 10 0 0112 2m0 2a8 8 0 00-8 8 8 8 0 008 8 8 8 0 008-8 8 8 0 00-8-8z"/></svg>

<?xml version="1.0" encoding="UTF-8"?><!DOCTYPE svg PUBLIC "-//W3C//DTD SVG 1.1//EN" "http://www.w3.org/Graphics/SVG/1.1/DTD/svg11.dtd"><svg xmlns="http://www.w3.org/2000/svg" xmlns:xlink="http://www.w3.org/1999/xlink" version="1.1" id="mdi-bell-circle-outline" width="24" height="24" viewBox="0 0 24 24"><path d="M17,16H7V15L8,14V11.39C8,10.3 8.27,9.34 8.79,8.53C9.3,7.72 10.04,7.21 11,7V6.5A1,1 0 0,1 12,5.5A1,1 0 0,1 13,6.5V7C13.96,7.21 14.7,7.72 15.21,8.53C15.73,9.34 16,10.3 16,11.39V14L17,15V16M13.5,17A1.5,1.5 0 0,1 12,18.5A1.5,1.5 0 0,1 10.5,17H13.5M12,2A10,10 0 0,1 22,12A10,10 0 0,1 12,22A10,10 0 0,1 2,12A10,10 0 0,1 12,2M12,4A8,8 0 0,0 4,12A8,8 0 0,0 12,20A8,8 0 0,0 20,12A8,8 0 0,0 12,4Z" /></svg>
